X:402
T:The Abbey Reel
T:The Moher Reel
S:(Simplified from) Liz Carroll, GLCD 1092, 1b
Z:Jerome Colburn <jscolbur:PRAIRIENET.ORG irtrad-l 2001-6-9
M:C|
K:Gm
G3 F G2 FD | G2 FG AccA | G3 F G2 FD | F3 G AccA |\
G3 F G2 FD | G2 FG Ac~c2 | dcAd G2 FD | F3 G Ac~c2 :|\
df~f2 g2 fd | fgaf g2 {a}gf | df~f2 g2 fg | afga gfdf |\
df~f2 gfaf | gfaf gfdf | cdfa g2 fg | abga fdcA :|*
"Variations A"
G3 F G2 FD | G2 FG AccA | G3 F G2 FD | F3 G AccA |\
G3 F G2 FD | G2 FG AccA | GcAG G2 FD | F3 G Ac~c2 ||\
G2 dG GAFG | DG~G2 FGAF | Gd~d2 GAFD | DF~F2 CF~F2 |\
G3 F G2 FD | G2 FG AccA | G3 F G2 FD | F3 G Ac~c2 ||\
=B3 A G2 FD | G2 FG AccA | G3 F G2 FD | F3 G AccA |\
~G3-G G2 FD | G2 FG AccA | dcAd G2 FD | F3 G Ac~c2 |]*\
"Variations B"
df~f2 g2 fd | fgaf gfdf | df~f2 g2 fg | afga gfdA |\
df~f2 gfaf | gfaf gfdf | cdfa g2 fg | abga fdcA |]**
